svgs/sharp-regular/expand-wide.svg

<svg xmlns="http://www.w3.org/2000/svg" viewBox="0 0 512 512"><!--! Font Awesome Pro 6.6.0 by @fontawesome - https://fontawesome.com License - https://fontawesome.com/license (Commercial License) Copyright 2024 Fonticons, Inc. --><path d="M136 64l24 0 0 48-24 0-88 0 0 88 0 24L0 224l0-24L0 88 0 64l24 0 112 0zM0 312l0-24 48 0 0 24 0 88 88 0 24 0 0 48-24 0L24 448 0 448l0-24L0 312zM488 64l24 0 0 24 0 112 0 24-48 0 0-24 0-88-88 0-24 0 0-48 24 0 112 0zM464 312l0-24 48 0 0 24 0 112 0 24-24 0-112 0-24 0 0-48 24 0 88 0 0-88z"/></svg>

<svg xmlns="http://www.w3.org/2000/svg" viewBox="0 0 512 512"><!--! Font Awesome Pro 6.4.0 by @fontawesome - https://fontawesome.com License - https://fontawesome.com/license (Commercial License) Copyright 2023 Fonticons, Inc. --><path d="M136 64h24v48H136 48v88 24H0V200 88 64H24 136zM0 312V288H48v24 88h88 24v48H136 24 0V424 312zM488 64h24V88 200v24H464V200 112H376 352V64h24H488zM464 312V288h48v24V424v24H488 376 352V400h24 88V312z"/></svg>
